flaticon/office/stapler-remover.svg

<svg xmlns="http://www.w3.org/2000/svg" width="32" height="32" viewBox="0 0 24 24">
    <path d="M 21.273438 12.121094 C 21.300781 12.078125 21.332031 12.039062 21.359375 11.992188 C 21.480469 11.832031 21.519531 11.59375 21.480469 11.394531 C 21.441406 11.195312 21.320312 11.035156 21.121094 10.914062 L 8.238281 2.832031 C 8.078125 2.714844 7.839844 2.671875 7.640625 2.714844 C 7.441406 2.753906 7.28125 2.875 7.160156 3.074219 C 7.15625 3.082031 7.152344 3.085938 7.148438 3.09375 L 5.839844 2.273438 C 5.640625 2.152344 5.398438 2.195312 5.28125 2.394531 L 1 9.035156 C 1 9.074219 1 9.074219 1 9.074219 C 0.878906 9.273438 0.921875 9.515625 1.121094 9.632812 C 1.320312 9.753906 1.558594 9.714844 1.679688 9.515625 C 2.199219 8.714844 3 8.152344 3.921875 7.953125 C 4.839844 7.753906 5.839844 7.914062 6.640625 8.433594 L 15.71875 14.113281 C 15.386719 14.730469 15.199219 15.441406 15.199219 16.195312 L 4.398438 16.195312 C 2.398438 16.195312 0.800781 14.59375 0.800781 12.59375 C 0.800781 12.355469 0.640625 12.195312 0.398438 12.195312 C 0.160156 12.195312 0 12.355469 0 12.59375 L 0 20.59375 C 0 20.832031 0.160156 20.992188 0.398438 20.992188 L 2 20.992188 C 2 21.433594 2.359375 21.792969 2.800781 21.792969 L 18 21.792969 C 18.441406 21.792969 18.800781 21.433594 18.761719 20.992188 C 18.761719 20.824219 18.746094 20.664062 18.714844 20.503906 C 19 20.5625 19.296875 20.59375 19.601562 20.59375 C 22.039062 20.59375 24 18.632812 24 16.195312 C 24 14.347656 22.875 12.773438 21.273438 12.121094 Z M 7.839844 3.515625 L 20.71875 11.59375 C 20.640625 11.671875 20.558594 11.792969 20.480469 11.875 C 20.40625 11.863281 20.332031 11.851562 20.261719 11.84375 C 20.042969 11.808594 19.824219 11.792969 19.601562 11.792969 C 19.160156 11.792969 18.734375 11.859375 18.332031 11.976562 L 8.359375 5.714844 C 8.039062 5.511719 7.808594 5.21875 7.6875 4.894531 C 7.582031 4.5625 7.582031 4.1875 7.71875 3.832031 C 7.746094 3.785156 7.753906 3.730469 7.75 3.675781 C 7.777344 3.621094 7.804688 3.566406 7.839844 3.515625 Z M 16.121094 13.472656 L 7.039062 7.753906 C 6.359375 7.3125 5.519531 7.074219 4.71875 7.074219 C 4.398438 7.074219 4.078125 7.113281 3.761719 7.152344 C 3.519531 7.234375 3.28125 7.3125 3.039062 7.394531 L 5.71875 3.152344 L 6.839844 3.832031 C 6.832031 3.875 6.824219 3.917969 6.820312 3.957031 C 6.816406 3.972656 6.8125 3.988281 6.8125 4.003906 C 6.8125 4.011719 6.808594 4.019531 6.808594 4.027344 C 6.773438 4.285156 6.78125 4.546875 6.832031 4.804688 C 6.953125 5.441406 7.328125 6.019531 7.921875 6.394531 L 17.386719 12.386719 C 17.039062 12.585938 16.722656 12.835938 16.445312 13.121094 C 16.332031 13.230469 16.222656 13.347656 16.121094 13.472656 Z M 0.800781 20.195312 L 0.800781 15.113281 C 1.601562 16.234375 2.921875 16.992188 4.398438 16.992188 L 15.273438 16.992188 C 15.378906 17.574219 15.597656 18.117188 15.90625 18.59375 L 4.398438 18.59375 C 4.359375 18.59375 4.324219 18.59375 4.285156 18.597656 C 4.277344 18.597656 4.273438 18.597656 4.265625 18.597656 C 3.28125 18.648438 2.425781 19.277344 2.121094 20.195312 Z M 18 20.992188 L 2.800781 20.992188 C 2.800781 20.910156 2.808594 20.824219 2.820312 20.746094 C 2.828125 20.722656 2.835938 20.699219 2.839844 20.671875 C 2.898438 20.390625 3.027344 20.140625 3.203125 19.9375 C 3.203125 19.9375 3.203125 19.933594 3.207031 19.933594 C 3.210938 19.925781 3.21875 19.917969 3.226562 19.910156 C 3.484375 19.632812 3.835938 19.445312 4.234375 19.402344 C 4.234375 19.402344 4.238281 19.402344 4.238281 19.402344 C 4.261719 19.398438 4.285156 19.398438 4.308594 19.398438 C 4.3125 19.394531 4.316406 19.394531 4.320312 19.394531 C 4.347656 19.394531 4.375 19.394531 4.398438 19.394531 L 16.398438 19.394531 C 16.449219 19.394531 16.511719 19.394531 16.582031 19.402344 C 16.941406 19.738281 17.355469 20.015625 17.8125 20.21875 C 17.925781 20.453125 18 20.722656 18 20.992188 Z M 19.601562 19.792969 C 19.105469 19.792969 18.636719 19.695312 18.207031 19.519531 C 18.207031 19.515625 18.203125 19.515625 18.199219 19.515625 C 18.191406 19.511719 18.183594 19.507812 18.175781 19.503906 C 17.789062 19.339844 17.441406 19.109375 17.136719 18.828125 C 17.121094 18.800781 17.101562 18.777344 17.078125 18.753906 C 16.480469 18.152344 16.121094 17.394531 16.039062 16.554688 C 16.035156 16.519531 16.023438 16.488281 16.011719 16.460938 C 16.003906 16.371094 16 16.28125 16 16.195312 C 16 15.5 16.195312 14.851562 16.53125 14.304688 C 16.566406 14.28125 16.605469 14.257812 16.640625 14.234375 C 17.039062 13.59375 17.71875 13.074219 18.441406 12.832031 C 18.515625 12.8125 18.585938 12.777344 18.636719 12.722656 C 18.941406 12.640625 19.265625 12.59375 19.601562 12.59375 C 21.601562 12.59375 23.199219 14.195312 23.199219 16.195312 C 23.199219 18.195312 21.601562 19.792969 19.601562 19.792969 Z M 19.601562 19.792969"/>
    <path d="M 19.601562 13.394531 C 18.039062 13.394531 16.800781 14.632812 16.800781 16.195312 C 16.800781 17.753906 18.039062 18.992188 19.601562 18.992188 C 21.160156 18.992188 22.398438 17.753906 22.398438 16.195312 C 22.398438 14.632812 21.160156 13.394531 19.601562 13.394531 Z M 19.601562 18.195312 C 18.480469 18.195312 17.601562 17.3125 17.601562 16.195312 C 17.601562 15.074219 18.480469 14.195312 19.601562 14.195312 C 20.71875 14.195312 21.601562 15.074219 21.601562 16.195312 C 21.601562 17.3125 20.71875 18.195312 19.601562 18.195312 Z M 19.601562 18.195312"/>
    <path d="M 20.679688 15.113281 C 20.519531 14.953125 20.28125 14.953125 20.121094 15.113281 L 19.601562 15.632812 L 19.078125 15.113281 C 18.921875 14.953125 18.679688 14.953125 18.519531 15.113281 C 18.359375 15.273438 18.359375 15.515625 18.519531 15.671875 L 19.039062 16.195312 L 18.519531 16.714844 C 18.359375 16.875 18.359375 17.113281 18.519531 17.273438 C 18.601562 17.355469 18.679688 17.394531 18.800781 17.394531 C 18.921875 17.394531 19 17.355469 19.078125 17.273438 L 19.601562 16.753906 L 20.121094 17.273438 C 20.199219 17.355469 20.28125 17.394531 20.398438 17.394531 C 20.519531 17.394531 20.601562 17.355469 20.679688 17.273438 C 20.839844 17.113281 20.839844 16.875 20.679688 16.714844 L 20.160156 16.195312 L 20.679688 15.671875 C 20.839844 15.515625 20.839844 15.273438 20.679688 15.113281 Z M 20.679688 15.113281"/>
</svg>

<svg xmlns="http://www.w3.org/2000/svg" width="32" height="32" viewBox="0 0 24 24">
    <path d="M21.273 12.121c.028-.043.059-.082.086-.129.121-.16.16-.398.121-.597-.039-.2-.16-.36-.359-.48L8.238 2.831a.782.782 0 0 0-.597-.117c-.2.039-.36.16-.48.36-.005.007-.009.01-.013.019l-1.308-.82c-.2-.122-.442-.079-.559.12L1 9.036v.04c-.121.198-.078.44.121.558.2.12.438.082.559-.117C2.2 8.715 3 8.152 3.922 7.953c.918-.2 1.918-.039 2.719.48l9.078 5.68a4.386 4.386 0 0 0-.52 2.082H4.4c-2 0-3.598-1.601-3.598-3.601 0-.239-.16-.399-.403-.399-.238 0-.398.16-.398.399v8c0 .238.16.398.398.398H2c0 .442.36.801.8.801H18c.441 0 .8-.36.762-.8 0-.169-.016-.329-.047-.49.285.06.582.09.887.09A4.388 4.388 0 0 0 24 16.196a4.387 4.387 0 0 0-2.727-4.074zM7.84 3.516l12.879 8.078c-.078.078-.16.199-.239.281-.074-.012-.148-.023-.218-.031a4.14 4.14 0 0 0-.66-.051c-.442 0-.868.066-1.27.184L8.359 5.715a1.666 1.666 0 0 1-.671-.82 1.605 1.605 0 0 1 .03-1.063.27.27 0 0 0 .032-.156c.027-.055.055-.11.09-.16zm8.281 9.957L7.04 7.753a4.344 4.344 0 0 0-2.32-.679c-.32 0-.64.04-.957.078-.242.082-.48.16-.723.243l2.68-4.243 1.12.68a1.638 1.638 0 0 0-.019.125.196.196 0 0 0-.008.047c0 .008-.003.016-.003.023-.036.258-.028.52.023.778a2.403 2.403 0 0 0 1.09 1.59l9.465 5.992c-.348.199-.664.449-.942.734-.113.11-.222.227-.324.352zM.801 20.195v-5.082c.8 1.121 2.12 1.88 3.597 1.88h10.875c.106.581.325 1.124.633 1.6H4.398c-.039 0-.074 0-.113.005h-.02c-.984.05-1.84.68-2.144 1.597zM18 20.992H2.8c0-.082.009-.168.02-.246.008-.023.016-.047.02-.074.058-.281.187-.531.363-.735 0 0 0-.003.004-.003.004-.008.012-.016.02-.024.257-.277.609-.465 1.007-.508h.004c.024-.004.047-.004.07-.004.005-.003.008-.003.012-.003h12.078c.051 0 .114 0 .184.007.36.336.773.614 1.23.817.114.234.188.504.188.773zm1.602-1.199c-.497 0-.965-.098-1.395-.273 0-.004-.004-.004-.008-.004l-.023-.012a3.609 3.609 0 0 1-1.04-.676.35.35 0 0 0-.058-.074 3.578 3.578 0 0 1-1.039-2.2.33.33 0 0 0-.027-.093 3.603 3.603 0 0 1 .52-2.156c.034-.024.073-.047.109-.07.398-.641 1.078-1.16 1.8-1.403a.404.404 0 0 0 .196-.11c.304-.081.629-.128.965-.128 2 0 3.597 1.601 3.597 3.601s-1.597 3.598-3.597 3.598zm0 0"/>
    <path d="M19.602 13.395a2.781 2.781 0 0 0-2.801 2.8 2.78 2.78 0 0 0 2.8 2.797 2.78 2.78 0 0 0 2.797-2.797 2.78 2.78 0 0 0-2.796-2.8zm0 4.8c-1.122 0-2-.883-2-2 0-1.12.878-2 2-2 1.117 0 2 .88 2 2 0 1.117-.883 2-2 2zm0 0"/>
    <path d="M20.68 15.113a.385.385 0 0 0-.559 0l-.52.52-.523-.52a.385.385 0 0 0-.558 0 .385.385 0 0 0 0 .559l.52.523-.52.52a.385.385 0 0 0 0 .558c.082.082.16.122.28.122.122 0 .2-.04.278-.122l.524-.52.52.52c.077.082.16.122.276.122.122 0 .204-.04.282-.122a.385.385 0 0 0 0-.558l-.52-.52.52-.523a.385.385 0 0 0 0-.559zm0 0"/>
</svg>
